X:1
T:It Is I, Be Not Afraid
T:S. Foster Ames, 1917
T:It Is I, Be Not Afraid
T:Public Domain
T:Public Domain
C:S. Foster Ames, 1917
Z:Public Domain
%%score ( 1 2 ) ( 3 4 )
L:1/8
M:4/4
K:C
V:1 treble 
V:2 treble 
V:3 bass 
V:4 bass 
V:1
 C>[CD] | [CE]>[DF] [EG][FA] [EG][CE] [Ge]>[^Gd] | [Ac]>[GB] [Ac][FA] [EG]2 [EG][EG] | %3
w: 1.~Are you|in faith and doubt- ing? Doubt no more,|be not dis- mayed, Doubt not Je-|
w: 2.~In your|of dark fore- bod- ing, In dis- trust|of earth- ly aid, Hear the gra-|
w: 3.~He who|our ev- ery weak- ness, He to ev-|ery- one hath said, “Be not faith-|
w: 4.~Do you|to cross the riv- er? There is naught|for you to fear, Je- sus calls|
 [FA]>[Ac] [GB][FA] [EG][EG]C[CE] | [DG]>[DG] [EG][FG] [EG] ||"^Refrain" [EG][^D^F][EG] | %6
w: sus’ words as- sur- ing, “It is I,|not a- fraid.” * *||
w: cious Lord pro- claim- ing, “It is I,|not a- fraid.” Be not|a- fraid, be|
w: less, but be- liev- ing, It is I,|not a- fraid.” * *||
w: you, list- en to Him, “I’ll be there|bless and cheer.” * *||
 [FA]4- [FA][FA][F^G][FA] | [FB]6 fd | (z2 GG [GB])G[^FA][=FB] | (E^D E>F E6) |] %10
w: ||||
w: not * dis- mayed, It|is I, be|* * * not a- fraid.||
w: ||||
w: ||||
V:2
 C3/2 x/ | x8 | x8 | x6 C x | x5 || x3 | x8 | x8 | (B4- G) x3 | c6 x4 |] %10
w: weak|||be|||||||
w: hours|||be|||||||
w: knows|||be|||||||
w: fear|||to|||||||
V:3
 [C,E,]>[C,F,] | [C,G,]>[C,G,] [C,C][C,C] [C,C][C,G,] [C,C]>[E,C] | %2
w: ~ ~|~ ~ ~ ~ ~ ~ ~ ~|
 [F,C]>[F,C] [F,C][F,C] [C,C]2 [C,C][C,C] | [F,C]>[F,A,] [F,B,][F,C] [C,C][C,G,][A,,A,][A,,A,] | %4
w: ~ ~ ~ ~ ~ ~ ~|~ ~ ~ ~ ~ ~ ~ ~|
 [G,,B,]>[G,,B,] [G,,C][G,,D] [C,C] || z3 | z [F,C][F,C][F,C] [F,C][D,D][D,D][D,D] | %7
w: ~ ~ ~ ~ ~||Be not a- fraid, ~ ~ ~|
 [G,D][G,D][G,D][G,D] [G,D]2 z2 | z2 [G,F][G,D] [G,B,][G,B,][G,C][G,D] | C^F, G,>_A, G,6 |] %10
w: ~ be not dis- mayed,|It is I, ~ ~ ~|~ be not a- fraid.|
V:4
 x2 | x8 | x8 | x8 | x5 || x3 | x8 | x8 | x8 | C,6 x4 |] %10

